X: 33733
T: Rathven Market
R: hornpipe
M: 4/4
K: Dmixolydian
|:A>G|(3FFF F>E D>FA>d|B>GG>F E2 F>G|A>FF>A G>EE>G|F>GA>F E2 A>G|
(3FFF F>E D>FA>d|B>GG>F E2 A>G|F>GA>F (3EEE A>G|F2 D2 D2:|
(3ABc|d2 D>d F>dA>d|B>GG>F E2 F>G|A>FF>A G>EE>G|F>GA>F E2 (3ABc|
d2 D>d F>dA>d|B>GG>F E2 A>G|F>GA>F (3EEE A>G|F2 D2 D2 (3ABc|
d2 D>d F>dA>d|B>GG>F E2 F>G|A>FF>A G>EE>G|F>GA>F E2 A>G|
(3FFF F>E D>FA>d|B>GG>F E2 A>G|F>GA>F (3EEE A>G|F2 D2 D2||
|:A2|D>AA>D F2 D>B|A>D G2 F4|A>FF>A G>EE>G|F>GA>F E2 A2|
D>AA>D F2 D>B|B>GG>F E2 A>G|F>GA>F (3EEE A>G|F2 D2 D2:|
(3ABc|d4 A4|B>GG>F E2 F>G|A>FF>A G>EE>G|F>GA>F E2 (3ABc|
d4 A4|B>GG>F E2 A>G|F>GA>F (3EEE A>G|F2 D2 D2 (3ABc|
d4 A4|B>GG>F E2 F>G|A>FF>A G>EE>G|F>GA>F E2 A2|
D>AA>D F2 D>B|B>GG>F E2 A>G|F>GA>F (3EEE A>G|F2 D2 D2||
|:(3ABc|d2 D>d F>dA>d|G>dB>d A>dG>d|F>dA>d G>dF>d|E>FG>E C>EA>G|
(3FFF F>E D>FA>d|B>GG>F E2 A>G|F>GA>F (3EEE A>G|F2 D2 D2:|

